src/lib/packages/icons/src/assets/line/envelope-clock.svg

<svg width="24" height="24" viewBox="0 0 24 24" fill="none" xmlns="http://www.w3.org/2000/svg">
<path d="M12.75 19C12.75 19.414 12.414 19.75 12 19.75H5C2.582 19.75 1.25 18.418 1.25 16V7C1.25 4.582 2.582 3.25 5 3.25H17C19.418 3.25 20.75 4.582 20.75 7V11C20.75 11.414 20.414 11.75 20 11.75C19.586 11.75 19.25 11.414 19.25 11V7C19.25 5.423 18.577 4.75 17 4.75H5C3.423 4.75 2.75 5.423 2.75 7V16C2.75 17.577 3.423 18.25 5 18.25H12C12.414 18.25 12.75 18.586 12.75 19ZM16.0591 7.394L11.147 10.966C11.059 11.029 10.942 11.029 10.854 10.966L5.94189 7.394C5.60489 7.149 5.13704 7.22601 4.89404 7.55901C4.65004 7.89401 4.72408 8.36399 5.05908 8.60699L9.97095 12.179C10.2789 12.403 10.64 12.515 11 12.515C11.36 12.515 11.7221 12.403 12.0291 12.179L16.9409 8.60699C17.2759 8.36399 17.35 7.89401 17.106 7.55901C16.863 7.22501 16.3961 7.148 16.0591 7.394ZM22.75 17.5C22.75 19.844 20.844 21.75 18.5 21.75C16.156 21.75 14.25 19.844 14.25 17.5C14.25 15.156 16.156 13.25 18.5 13.25C20.844 13.25 22.75 15.156 22.75 17.5ZM21.25 17.5C21.25 15.983 20.017 14.75 18.5 14.75C16.983 14.75 15.75 15.983 15.75 17.5C15.75 19.017 16.983 20.25 18.5 20.25C20.017 20.25 21.25 19.017 21.25 17.5ZM19.25 17.189V16.187C19.25 15.773 18.914 15.437 18.5 15.437C18.086 15.437 17.75 15.773 17.75 16.187V17.499C17.75 17.698 17.829 17.889 17.97 18.029L18.908 18.967C19.054 19.113 19.246 19.187 19.438 19.187C19.63 19.187 19.822 19.114 19.968 18.967C20.261 18.674 20.261 18.199 19.968 17.906L19.25 17.189Z" fill="currentColor"/>
</svg>

<svg xmlns="http://www.w3.org/2000/svg" width="24" height="24" fill="none"><path fill="currentColor" d="M12.75 19a.75.75 0 0 1-.75.75H5c-2.418 0-3.75-1.332-3.75-3.75V7c0-2.418 1.332-3.75 3.75-3.75h12c2.418 0 3.75 1.332 3.75 3.75v4a.75.75 0 0 1-1.5 0V7c0-1.577-.673-2.25-2.25-2.25H5c-1.577 0-2.25.673-2.25 2.25v9c0 1.577.673 2.25 2.25 2.25h7a.75.75 0 0 1 .75.75Zm3.31-11.606-4.913 3.572a.25.25 0 0 1-.293 0L5.942 7.394a.75.75 0 0 0-.883 1.213l4.912 3.572a1.748 1.748 0 0 0 2.058 0l4.912-3.572a.75.75 0 0 0-.882-1.213ZM22.75 17.5a4.254 4.254 0 0 1-4.25 4.25 4.254 4.254 0 0 1-4.25-4.25 4.254 4.254 0 0 1 4.25-4.25 4.254 4.254 0 0 1 4.25 4.25Zm-1.5 0a2.752 2.752 0 0 0-2.75-2.75 2.752 2.752 0 0 0-2.75 2.75 2.752 2.752 0 0 0 2.75 2.75 2.752 2.752 0 0 0 2.75-2.75Zm-2-.311v-1.002a.75.75 0 0 0-1.5 0v1.312c0 .199.079.39.22.53l.938.938a.748.748 0 0 0 1.06 0 .75.75 0 0 0 0-1.061l-.718-.717Z"/></svg>
